X: 131
T: No_88_Song_for_the_Aide.krn
N: Derived from No_88_Song_for_the_Aide.krn
%%abc-version 2.0
%%abcx-abcm2ps-target-version 5.9.1 (29 Sep 2008)
%%abc-creator hum2abc beta
%%abcx-conversion-date 2019/03/15 08:35:45
%%humdrum-veritas 771553627
%%humdrum-veritas-data 2559263295
%%linebreak <none>
%%barnumbers 0
L: 1/8
M: 2/4
K: G clef=bass
[K:clef=bass][M:2/4]B,2B,2 | 
(3B,A,F,F,2 | 
B,2A,2 | 
(3B,A,F,E,2 | 
B,,B,,B,,2 | 
E,E,B,,2 ||  
[M:5/8]B,,B,,B,,B,, z ||  
[M:3/4](3E,B,,B,, C,B,, B,,B,, | 
B,,4z2 |]  



